X: 286
T:Down With The French. JaW.285
M:6/8
Q:120
S:James Winder Ms, Lancashire, 1835-41
R:Jig
O:England
A:Wyresdale,Lancashire
H:1/8
Z:vmp.Chris Partington, Aug 2004
K:C
g2e g2e|cdc e3|f2e f2e|dfc BAG|!
g2e g2e|cdc e3|dfe dcB|c3 c3:|!
|:d2d e2d|BcA G3|cAc ece|g2e c3|!
d2d e2d|BcA G3|ABc dcB|c3 c3:|]
